flaticon/fitness/running.svg

<svg xmlns="http://www.w3.org/2000/svg" width="32" height="32" viewBox="0 0 24 24">
    <path d="M 23.597656 5.210938 L 23.554688 5.171875 C 23.015625 4.632812 22.066406 4.632812 21.527344 5.171875 L 19.375 7.363281 C 19.25 7.488281 19.085938 7.488281 18.960938 7.363281 L 15.941406 4.550781 C 15.648438 4.300781 15.277344 4.136719 14.863281 4.136719 L 10.351562 4.136719 C 10.230469 4.136719 10.144531 4.179688 10.105469 4.21875 L 6.296875 7.863281 C 5.757812 8.441406 5.71875 9.351562 6.214844 9.890625 C 6.460938 10.179688 6.835938 10.34375 7.25 10.34375 C 7.664062 10.34375 8.035156 10.179688 8.285156 9.890625 L 10.972656 7.035156 L 11.925781 7.035156 L 5.636719 14.070312 L 1.746094 14.070312 C 0.792969 14.070312 0.046875 14.773438 0.0078125 15.640625 C -0.0351562 16.097656 0.128906 16.550781 0.460938 16.882812 C 0.792969 17.171875 1.207031 17.378906 1.660156 17.378906 L 7.457031 17.378906 C 7.578125 17.378906 7.664062 17.339844 7.746094 17.257812 L 10.726562 14.070312 L 13.207031 16.675781 L 12.464844 21.476562 C 12.257812 22.304688 12.671875 23.089844 13.375 23.421875 C 13.621094 23.546875 13.828125 23.589844 14.078125 23.589844 C 14.324219 23.589844 14.574219 23.546875 14.824219 23.421875 C 15.238281 23.214844 15.566406 22.800781 15.691406 22.304688 L 16.976562 15.394531 C 16.976562 15.269531 16.933594 15.105469 16.851562 15.019531 L 13.414062 11.585938 L 16.148438 8.855469 L 18.050781 10.757812 C 18.589844 11.296875 19.5 11.296875 20.039062 10.757812 L 23.597656 7.199219 C 24.132812 6.660156 24.132812 5.75 23.597656 5.210938 Z M 23.015625 6.621094 L 19.457031 10.179688 C 19.210938 10.386719 18.835938 10.386719 18.628906 10.179688 L 16.4375 7.984375 C 16.269531 7.820312 16.023438 7.820312 15.855469 7.984375 L 12.546875 11.296875 C 12.464844 11.378906 12.421875 11.460938 12.421875 11.585938 C 12.421875 11.710938 12.464844 11.792969 12.585938 11.917969 L 16.148438 15.476562 L 14.90625 22.140625 C 14.824219 22.347656 14.65625 22.554688 14.449219 22.675781 C 14.242188 22.761719 13.996094 22.800781 13.746094 22.675781 C 13.375 22.511719 13.207031 22.097656 13.292969 21.644531 L 14.078125 16.59375 C 14.078125 16.46875 14.035156 16.34375 13.953125 16.261719 L 11.015625 13.199219 C 10.933594 13.117188 10.847656 13.074219 10.726562 13.074219 C 10.601562 13.074219 10.476562 13.117188 10.4375 13.199219 L 7.289062 16.550781 L 1.660156 16.550781 C 1.414062 16.550781 1.207031 16.46875 1.039062 16.304688 C 0.917969 16.136719 0.835938 15.929688 0.835938 15.683594 C 0.835938 15.226562 1.246094 14.898438 1.746094 14.898438 L 5.800781 14.898438 C 5.925781 14.898438 6.007812 14.855469 6.089844 14.855469 L 13.125 6.992188 C 13.25 6.867188 13.25 6.703125 13.207031 6.535156 C 13.167969 6.371094 13 6.289062 12.835938 6.289062 L 10.765625 6.289062 C 10.683594 6.289062 10.558594 6.328125 10.476562 6.414062 L 7.664062 9.394531 C 7.578125 9.515625 7.414062 9.597656 7.25 9.597656 C 7.082031 9.597656 6.917969 9.515625 6.792969 9.394531 C 6.585938 9.144531 6.585938 8.773438 6.835938 8.523438 L 10.519531 5.003906 L 14.90625 5.003906 C 15.070312 5.003906 15.277344 5.089844 15.402344 5.210938 L 18.421875 8.027344 C 18.878906 8.441406 19.582031 8.398438 19.996094 7.984375 L 22.148438 5.792969 C 22.355469 5.585938 22.769531 5.585938 22.976562 5.792969 L 23.015625 5.832031 C 23.222656 6.039062 23.222656 6.414062 23.015625 6.621094 Z M 23.015625 6.621094"/>
    <path d="M 19.042969 5.378906 C 20.410156 5.378906 21.527344 4.261719 21.527344 2.894531 C 21.527344 1.527344 20.410156 0.410156 19.042969 0.410156 C 17.679688 0.410156 16.5625 1.527344 16.5625 2.894531 C 16.5625 4.261719 17.679688 5.378906 19.042969 5.378906 Z M 19.042969 1.238281 C 19.953125 1.238281 20.699219 1.984375 20.699219 2.894531 C 20.699219 3.804688 19.953125 4.550781 19.042969 4.550781 C 18.132812 4.550781 17.386719 3.804688 17.386719 2.894531 C 17.386719 1.984375 18.132812 1.238281 19.042969 1.238281 Z M 19.042969 1.238281"/>
</svg>

<svg xmlns="http://www.w3.org/2000/svg" width="32" height="32" viewBox="0 0 24 24">
    <path d="M23.598 5.21l-.043-.038c-.54-.54-1.489-.54-2.028 0l-2.152 2.191c-.125.125-.29.125-.414 0l-3.02-2.812a1.658 1.658 0 0 0-1.078-.414h-4.511a.356.356 0 0 0-.247.082L6.297 7.863c-.54.578-.578 1.489-.082 2.028.246.289.62.453 1.035.453.414 0 .785-.164 1.035-.453l2.688-2.856h.953l-6.29 7.035h-3.89c-.953 0-1.7.703-1.738 1.57-.043.458.12.91.453 1.243.332.289.746.496 1.2.496h5.796c.121 0 .207-.04.29-.121l2.98-3.188 2.48 2.606-.742 4.8a1.68 1.68 0 0 0 .91 1.946c.246.125.453.168.703.168.246 0 .496-.043.746-.168.414-.207.742-.621.867-1.117l1.286-6.91c0-.125-.043-.29-.125-.375l-3.438-3.434 2.734-2.73 1.903 1.902c.539.539 1.449.539 1.988 0l3.559-3.559c.535-.539.535-1.449 0-1.988zm-.582 1.411l-3.559 3.559c-.246.207-.621.207-.828 0l-2.192-2.196a.406.406 0 0 0-.582 0l-3.308 3.313a.375.375 0 0 0-.125.289c0 .125.043.207.164.332l3.562 3.559-1.242 6.664c-.082.207-.25.414-.457.535-.207.086-.453.125-.703 0-.371-.164-.539-.578-.453-1.031l.785-5.051a.473.473 0 0 0-.125-.332l-2.937-3.063a.381.381 0 0 0-.29-.125c-.124 0-.25.043-.289.125L7.29 16.551H1.66a.854.854 0 0 1-.62-.246 1.046 1.046 0 0 1-.204-.621c0-.457.41-.786.91-.786h4.055c.125 0 .207-.043.289-.043l7.035-7.863c.125-.125.125-.289.082-.457-.039-.164-.207-.246-.371-.246h-2.07a.431.431 0 0 0-.29.125l-2.812 2.98a.522.522 0 0 1-.414.204.675.675 0 0 1-.457-.203.64.64 0 0 1 .043-.872l3.684-3.52h4.386c.164 0 .371.087.496.208l3.02 2.816c.457.414 1.16.371 1.574-.043l2.152-2.191c.207-.207.622-.207.829 0l.039.039a.579.579 0 0 1 0 .79zm0 0"/>
    <path d="M19.043 5.379a2.49 2.49 0 0 0 2.484-2.484A2.49 2.49 0 0 0 19.043.41a2.49 2.49 0 0 0-2.48 2.485 2.49 2.49 0 0 0 2.48 2.484zm0-4.14c.91 0 1.656.745 1.656 1.656 0 .91-.746 1.656-1.656 1.656-.91 0-1.656-.746-1.656-1.656 0-.91.746-1.657 1.656-1.657zm0 0"/>
</svg>
